X: 100455
T: EXERCISE -- "LODER."
C: Arranged by W.B. Laybourn
B: K\"ohler's Violin Repository, v.3, 1885 p.286 #1
F: http://www.archive.org/details/klersviolinrepos03rugg
Z: 2012 John Chambers <jc:trillian.mit.edu>
P: Violin Primo
Q: "Andante"
M: 2/4
L: 1/8
K: G
|:\
vd3 d | (ed) (cB) | B3 B | (cB) (AG) |\
(GB) (Bd) | d2 (ed) | (de/d/) cB | (B2 A2) |
d3 d | (ed) (cB) | B3 B | (cB) (AG) |\
(GB) (Bd) | d2 (ec) | (d<B) (A>B) | G3 z :|
|:\
vA3 A | (BA) A2 | (Bc/d/) (cB) | (BA) G2 |\
(GB) (Bd) | d2 (ed) | (de/d/) cB | (B2 A2) |
d3 d | (ed) (cB) | B3 B | (cB) (AG) |\
(GB) (Bd) | d2 ec | (d<B) (A>B) | G3 :|

%%sep 2 1 500

